static/surge-logo.svg

<svg width="30" height="31" viewBox="0 0 30 31" fill="none" xmlns="http://www.w3.org/2000/svg">
<path fill-rule="evenodd" clip-rule="evenodd" d="M14.9695 30.9268C23.2369 30.9268 29.939 24.2247 29.939 15.9573C29.939 7.68986 23.2369 0.987793 14.9695 0.987793C6.70207 0.987793 0 7.68986 0 15.9573C0 24.2247 6.70207 30.9268 14.9695 30.9268ZM10.6408 17.0278L15.8901 3.58291L19.9408 10.4885L14.8445 14.066L17.3959 17.2498L19.9471 20.4338L11.83 26.657L14.2999 18.3678L10.6408 17.0278Z" fill="#FFEBDD"/>
</svg>

<svg xmlns="http://www.w3.org/2000/svg" width="30" height="31" fill="none"><path fill="#FFEBDD" fill-rule="evenodd" d="M14.97 30.927c8.267 0 14.969-6.702 14.969-14.97 0-8.267-6.702-14.97-14.97-14.97C6.703.988 0 7.69 0 15.958c0 8.268 6.702 14.97 14.97 14.97m-4.33-13.9 5.25-13.444 4.05 6.906-5.096 3.577 2.552 3.184 2.551 3.184-8.117 6.223 2.47-8.29z" clip-rule="evenodd"/></svg>
